X:1
T:Maid of the Mill [5]
M:2/4
L:1/8
S:William Morris music manuscript collection (1776-1777)
N:Morris was a fifer with Captain Tucker’s Company, New
N:Jersey’s First Regiment, Hunterdown County.
Z:AK/Fiddler's Companion
K:G
DGFG|A/B/c/A/ BG|dB/d/ cA/c/ |BG/B/ A2|
DGFG|A/B/c/A/ BG|e/d/c/B/ A/d/B/G/|FE D2:|
|:B>cd>c|B/c/d/B/ cA|A>Bc>B|A/B/c/A/ B>G|
dB/d/ cA/c/|BG/B/ A2|d/g/f/a/ g/e/d/c/|BG G2:|]

